X: 11699
T: Eire Sign, The
R: reel
M: 4/4
K: Dmajor
|:ABdB AFED|D2ED EFDF|ABdc d2cd|Beed dcBc|
ABdB AFED|G2(3AGF GA Bcde|fddc dBAF|EDEF D3 E:|
|:ABdf a2fa|gbef g2 fg|fddc dBAd|Bcdf e2dB|
ABdf a2 fa|gb ef g2 fg|fddc dBAF|EDEF D3 E:|

